svg/fluentui-system-icons/ic_fluent_multiplier_5x_28_regular.svg

<svg width="28" height="28" viewBox="0 0 28 28" fill="none" xmlns="http://www.w3.org/2000/svg">
<path d="M9.50001 8C9.10196 8 8.77325 8.31096 8.75117 8.7084L8.50117 13.2084C8.48887 13.4298 8.57517 13.6453 8.7369 13.797C8.89863 13.9487 9.11921 14.0211 9.33937 13.9947L11.9065 13.6866C13.4189 13.5051 14.75 14.686 14.75 16.2092C14.75 17.6125 13.6125 18.75 12.2093 18.75H11.904C11.0731 18.75 10.2838 18.387 9.74308 17.7561L9.31946 17.2619C9.04989 16.9474 8.57641 16.911 8.26192 17.1806C7.94743 17.4501 7.911 17.9236 8.18057 18.2381L8.6042 18.7323C9.42987 19.6956 10.6352 20.25 11.904 20.25H12.2093C14.4409 20.25 16.25 18.4409 16.25 16.2092C16.25 13.7867 14.1331 11.9086 11.7278 12.1973L10.0485 12.3988L10.2095 9.5H14.75C15.1642 9.5 15.5 9.16421 15.5 8.75C15.5 8.33579 15.1642 8 14.75 8H9.50001ZM17.2197 14.2197C17.5126 13.9268 17.9874 13.9268 18.2803 14.2197L20 15.9393L21.7197 14.2197C22.0126 13.9268 22.4874 13.9268 22.7803 14.2197C23.0732 14.5126 23.0732 14.9874 22.7803 15.2803L21.0607 17L22.7803 18.7197C23.0732 19.0126 23.0732 19.4874 22.7803 19.7803C22.4874 20.0732 22.0126 20.0732 21.7197 19.7803L20 18.0607L18.2803 19.7803C17.9874 20.0732 17.5126 20.0732 17.2197 19.7803C16.9268 19.4874 16.9268 19.0126 17.2197 18.7197L18.9393 17L17.2197 15.2803C16.9268 14.9874 16.9268 14.5126 17.2197 14.2197ZM6.5 19.25C6.5 19.6642 6.16421 20 5.75 20C5.33579 20 5 19.6642 5 19.25C5 18.8358 5.33579 18.5 5.75 18.5C6.16421 18.5 6.5 18.8358 6.5 19.25Z" fill="#212121"/>
</svg>

<svg xmlns="http://www.w3.org/2000/svg" width="28" height="28"><path d="M9.5 8a.75.75 0 0 0-.749.708l-.25 4.5a.75.75 0 0 0 .838.787l2.567-.308a2.54 2.54 0 1 1 .303 5.063h-.305c-.83 0-1.62-.363-2.16-.994l-.425-.494a.75.75 0 1 0-1.138.976l.423.494a4.346 4.346 0 0 0 3.3 1.518h.305a4.04 4.04 0 1 0-.481-8.053l-1.68.202.162-2.899h4.54a.75.75 0 0 0 0-1.5H9.5Zm7.72 6.22a.75.75 0 0 1 1.06 0L20 15.94l1.72-1.72a.75.75 0 1 1 1.06 1.06L21.06 17l1.72 1.72a.75.75 0 1 1-1.06 1.06L20 18.06l-1.72 1.72a.75.75 0 1 1-1.06-1.06L18.94 17l-1.72-1.72a.75.75 0 0 1 0-1.06ZM6.5 19.25a.75.75 0 1 1-1.5 0 .75.75 0 0 1 1.5 0Z"/></svg>
